build/img/sprite/icon-telegram.svg

<svg id="telegram" width="26" height="26" viewBox="0 0 26 26" fill="currentColor" xmlns="http://www.w3.org/2000/svg">
<g id="Group 203">
<rect id="Rectangle 137" width="26" height="26" fill="currentColor"/>
<path id="Vector" d="M19.8525 6.09375L4.7938 11.9007C3.7661 12.3134 3.77204 12.8867 4.60524 13.1424L8.47142 14.3484L17.4166 8.7046C17.8396 8.44726 18.226 8.5857 17.9084 8.86768L10.661 15.4084L10.3943 19.3944C10.785 19.3944 10.9574 19.2151 11.1766 19.0037L13.0544 17.1776L16.9605 20.0628C17.6808 20.4594 18.198 20.2556 18.3772 19.396L20.9414 7.31169C21.2038 6.25937 20.5396 5.78289 19.8525 6.09375Z" fill="white"/>
</g>
</svg>

<svg width="26" height="26" fill="currentColor" xmlns="http://www.w3.org/2000/svg"><path d="M0 0h26v26H0z"/><path d="M19.852 6.094 4.794 11.9c-1.028.412-1.022.986-.189 1.241l3.866 1.206 8.946-5.643c.423-.258.809-.12.491.163l-7.247 6.54-.267 3.986c.391 0 .563-.179.783-.39l1.877-1.826 3.906 2.885c.72.396 1.238.193 1.417-.667l2.564-12.084c.263-1.053-.401-1.53-1.088-1.218Z" fill="#fff"/></svg>
